X: 42091
T: Wandering Minstrel, The
R: jig
M: 6/8
K: Gmajor
B|A2D BAF|Ade fdB|A2d BAF|AFD E2B|
A2d BAF|Ade fdA|BdB AFD|EDB D2B:|
ABd ~f3|efg fdB|ABd f2A|fdB ~B2d|
ABd ~f3|efg fdA|BdB AFD EDB|D3:|

